packages/dnb-ui-lib/assets/icons/currency.svg

<svg width="16" height="16" viewBox="0 0 16 16" fill="none" xmlns="http://www.w3.org/2000/svg">
<path d="M1.15552 3.33326L2.55552 5.6666L4.88885 4.2666M5.62867 1.09326C4.76482 1.40827 4.02816 1.99799 3.53171 2.77194C3.03526 3.5459 2.80643 4.46136 2.88032 5.37788M14.8444 12.6666L13.4444 10.3333L11.1111 11.7333M10.3713 14.9066C11.2349 14.5916 11.9714 14.0021 12.4678 13.2284C12.9643 12.4547 13.1932 11.5395 13.1196 10.6232M11.8636 2.5675H10.0154C9.73217 2.5677 9.45782 2.66557 9.23942 2.8443C9.02102 3.02303 8.87218 3.27153 8.81844 3.54712C8.76469 3.82271 8.80938 4.10823 8.94484 4.35474C9.0803 4.60125 9.2981 4.79336 9.56087 4.89813L11.4372 5.64227C11.7 5.74705 11.9178 5.93922 12.0533 6.18573C12.1887 6.43224 12.2334 6.71775 12.1797 6.99335C12.1259 7.26894 11.9771 7.51743 11.7587 7.69617C11.5403 7.8749 11.2659 7.9727 10.9827 7.9729H9.13632M10.5 2.5675V1.49994M10.5 8.99994V7.9729M5.60759 13.9999C4.88427 13.9999 4.19059 13.7152 3.67912 13.2084C3.16766 12.7015 2.88032 12.014 2.88032 11.2972C2.88032 10.5804 3.16766 9.89302 3.67912 9.38617C4.19059 8.87931 4.88427 8.59454 5.60759 8.59454M1.51669 11.2972H5.60759" stroke="black" stroke-width="1.5" stroke-linecap="round" stroke-linejoin="round"/>
</svg>

<svg width="16" height="16" viewBox="0 0 16 16" fill="none" xmlns="http://www.w3.org/2000/svg"><path d="M1.156 3.333l1.4 2.334 2.333-1.4m.74-3.174A4.201 4.201 0 002.88 5.378m11.964 7.289l-1.4-2.334-2.333 1.4m-.74 3.174a4.201 4.201 0 002.749-4.284m-1.256-8.056h-1.849c-.283 0-.557.099-.776.277a1.207 1.207 0 00-.294 1.51c.135.247.353.44.616.544l1.876.744c.263.105.48.297.616.544a1.2 1.2 0 01-.294 1.51 1.227 1.227 0 01-.776.277H9.136M10.5 2.568V1.5m0 7.5V7.973M5.608 14a2.74 2.74 0 01-1.929-.792 2.69 2.69 0 01-.799-1.91c0-.718.288-1.405.8-1.912a2.74 2.74 0 011.928-.791m-4.091 2.702h4.09" stroke="#000" stroke-width="1.5" stroke-linecap="round" stroke-linejoin="round"/></svg>
